!!!!SEGMENT: pl-wnifc--13846--151_anonim--piesni-polskie-i-ruskie-ludu-galicyjskiego-151-kiedy-ja-szedl-do-swojej-dziewczyny.krn
!!!kernsource:
!!!cenid: 18xx:3373
!!!COM: Anonim
!!!COM-rismid: pe30004985
!!!CDT:
!!!CNT:
!!!GTL: Pieśni polskie i ruskie ludu galicyjskiego
!!!OTL: 151. Kiedy ja szedł do swojèj dzièwczyny
!!!PDT: 1833
!!!AGN:
!!!SMS-siglum: PL-Wnifc
!!!SMS-shelfmark: 13846
!!!SMS-shelfwork: 151 G
!!!NIFC-rismid: 1001039684
!!!URL-scan: http://repozytorium.nifc.pl/skany/pl-wnifc-nut--13846
!!!ONB-nifc:
!!!OMD: Alla polacca
**kern	**kern	**kern	**text
*part2	*part2	*part1	*part1
*staff3	*staff2	*staff1	*staff1
*Iempty	*Iempty	*Iempty	*
*I"	*I"	*I"	*
*clefF4	*clefG2	*clefG2	*
*k[f#]	*k[f#]	*k[f#]	*
*G:	*G:	*G:	*
*M3/4	*M3/4	*M3/4	*
=1-	=1-	=1-	=1-
8GG/	8g/L 8B/	8g/	Kie-
8r	8b/J 8g/	8b\	-dy
8G\	4dd\ 4b\	4dd\	ja
8r	.	.	.
8G\	4dd\ 4b\	4dd\	szedł
8r	.	.	.
=2	=2	=2	=2
8G\	8dd\L 8b\	8dd\	do
8r	8dd\ 8b\	8dd\	swo-
8GG/	8ee\ 8cc\	8ee\	-jèj
8r	8dd\ 8b\	8dd\	dzièw-
4r	8cc/ 8a/	8cc\	-czy-
.	8b/J 8g/	8b\	-ny,
!!LO:LB:g=original
=3	=3	=3	=3
8D/ 8DD/	8a/L 8f#/	8a/	mie-
8r	8b/J 8g/	8b/	-siąc
8D\	4cc\ 4a\	4cc\	swiè-
8r	.	.	.
8D\	4cc\ 4a\	4cc\	-cił
8r	.	.	.
=4	=4	=4	=4
*	*^	*	*
4D\	8b/L 8g/	4ryy	8b\	wy-
.	8dd/J 8b/	.	8dd\	-so-
8r	4a/	4f#\	4a/	-ko,
8D\`L	.	.	.	.
8F#\`	4r	4r	4r	.
8A\`J	.	.	.	.
*	*v	*v	*	*
!!LO:LB:g=original
=5	=5	=5	=5
8D\	8a/L 8f#/	8a/	o-
8r	8b/J 8g/	8b/	-na
8d\ 8F#\ 8D\	4cc\ 4a\	4cc\	za
8r	.	.	.
8d\ 8F#\ 8D\	4cc\ 4a\	4cc\	mną
8r	.	.	.
=6	=6	=6	=6
2D/ 2DD/	8cc\L 8a\	8cc\	o-
.	8ee\ 8cc\	8ee\	-knem
.	8dd\ 8b\	8dd\	wy-
.	8cc\ 8a\	8cc\	-glą-
4r	8b\ 8g\	8b\	-da-
.	8a\J 8f#\	8a/	-ła,
!!LO:LB:g=original
=7	=7	=7	=7
4G/ 4GG/	8g/L	8g/	czym
.	8b/J	8b/	już
4GG/	4dd\ 4b\	4dd\	za-
4BB/	4b\ 4g\ 4d\	4b\	-szedł
=8	=8	=8	=8
*	*^	*	*
4D\	(<8a/L 8f#/	4c\	8a\	da-
.	8dd/J)	.	8dd\	-le-
4G\	4g/	4B\	4g/	-ko.
4r	4r	4ryy	4r	.
*	*v	*v	*	*
==	==	==	==
*-	*-	*-	*-
!!!system-decoration: s1,{(s2,s3)}
!!!RDF**kern: > = above
!!!RDF**kern: < = below
!!!AIN: 2 empty
!!!ENC: Leszek Kubiak
!!!END: 2021-11-12
